X: 71
T: THE LITTLE BLACK ROSE
B: O'Neill's 71
M: 3/4
L: 1/8
Z: Transcribed by John Chambers <jc@trillian.mit.edu>
N: "Tenderly"
N: 2nd Setting.
K:Cm
c>B \
| G2 G2 {A}G^F | G2 G2 ((5G/A/=B/c/d/) | e2 d2 {d}c=B | c4 cd |
| e2 g2 f>d | c>B GA =Bc | Td2 c2 c>d | c4 ||
|| cd \
| e2 d2 g>f | f2 d2 c>B | G2 F2 GA | HB4 (GB) |
| c2 e2 dc | B3 c B>G | F2 E2 C>=B, | C4 ||


